src/img/percent.svg

<svg width="55" height="55" viewBox="0 0 55 55" fill="none" xmlns="http://www.w3.org/2000/svg">
<path d="M37.7858 35.2143C37.7858 36.6205 36.6206 37.7857 35.2144 37.7857C33.8081 37.7857 32.643 36.6205 32.643 35.2143C32.643 33.808 33.8081 32.6428 35.2144 32.6428C36.6206 32.6428 37.7858 33.808 37.7858 35.2143ZM22.3572 19.7857C22.3572 21.1919 21.1921 22.3571 19.7858 22.3571C18.3796 22.3571 17.2144 21.1919 17.2144 19.7857C17.2144 18.3794 18.3796 17.2143 19.7858 17.2143C21.1921 17.2143 22.3572 18.3794 22.3572 19.7857ZM42.9287 35.2143C42.9287 30.9553 39.4733 27.5 35.2144 27.5C30.9555 27.5 27.5001 30.9553 27.5001 35.2143C27.5001 39.4732 30.9555 42.9286 35.2144 42.9286C39.4733 42.9286 42.9287 39.4732 42.9287 35.2143ZM41.0001 13.3571C41.0001 12.654 40.4175 12.0714 39.7144 12.0714H36.5001C36.0983 12.0714 35.7166 12.2723 35.4756 12.5937L14.2613 40.8794C14.1006 41.1004 14.0001 41.3616 14.0001 41.6428C14.0001 42.346 14.5827 42.9286 15.2858 42.9286H18.5001C18.9019 42.9286 19.2836 42.7277 19.5247 42.4062L40.7389 14.1205C40.8997 13.8995 41.0001 13.6384 41.0001 13.3571ZM27.5001 19.7857C27.5001 15.5268 24.0447 12.0714 19.7858 12.0714C15.5269 12.0714 12.0715 15.5268 12.0715 19.7857C12.0715 24.0446 15.5269 27.5 19.7858 27.5C24.0447 27.5 27.5001 24.0446 27.5001 19.7857Z" fill="white"/>
</svg>

<svg xmlns="http://www.w3.org/2000/svg" width="55" height="55" fill="none" viewBox="0 0 55 55"><path fill="#fff" d="M37.786 35.214a2.59 2.59 0 0 1-2.572 2.572 2.59 2.59 0 0 1-2.571-2.572 2.59 2.59 0 0 1 2.571-2.571 2.59 2.59 0 0 1 2.572 2.571M22.357 19.786a2.59 2.59 0 0 1-2.571 2.571 2.59 2.59 0 0 1-2.572-2.571 2.59 2.59 0 0 1 2.572-2.572 2.59 2.59 0 0 1 2.571 2.572M42.93 35.214a7.716 7.716 0 0 0-7.715-7.714 7.716 7.716 0 0 0-7.714 7.714 7.716 7.716 0 0 0 7.714 7.715 7.716 7.716 0 0 0 7.715-7.715M41 13.357c0-.703-.583-1.286-1.286-1.286H36.5c-.402 0-.783.201-1.024.523L14.26 40.879c-.16.221-.26.483-.26.764 0 .703.582 1.286 1.285 1.286H18.5c.402 0 .784-.201 1.025-.523l21.214-28.285c.16-.222.261-.483.261-.764m-13.5 6.429a7.716 7.716 0 0 0-7.714-7.715 7.716 7.716 0 0 0-7.715 7.715 7.716 7.716 0 0 0 7.715 7.714 7.716 7.716 0 0 0 7.714-7.714"/></svg>
